X:453
T: Still, still, still (5-49), S. 81
N: P0723
O: Lothringen
S: MERKELBACH-PINCK, Angelika: Verklingende Weisen, Bd 5, Kassel 1962]
R: geistliches, religises Lied]
M: 4/4
L: 1/4
K: G
 | d2c2 | B2dc | BdB2 | AGA2 | G2
GA | B2d2 | BAG2 | ABcB | A2
GA | B2d2 | BAG2 | ABcB | A2z2 |
d2c2 | B2dc | BdB2 | AGA2 | G2z2

@@@ Tune index: 8003
